X:1
T:Title
%%score [ 1 2 3 4 ]
L:1/8
Q:1/4=240
M:4/2
K:C
V:1 treble nm="Soprano" snm="S"
V:2 treble nm="Alto" snm="A"
V:3 treble-8 nm="Tenor" snm="T"
V:4 bass nm="Bass" snm="B"
V:1
 z8 z4 A4 | B4 B4 c2 d2 e4- | e2 dc B4 A6 B2 | c8 B8 | A4 A4 A4 A4- | A4 ^G4 A8- | A8 A6 B2 | %7
w: Au-|fer a no- * *|* * * * bis a|no- *|bis i- ni- qui-|* ta- tes|* no- *|
 c2 d2 e2 dc B8- | B8 c4 c4 | B4 B4 A8 | A4 F2 G2 A2 F2 G4- | G4 F4 E4 F4 | G8 F8 | %13
w: |* stras, i-|ni- qui- ta-|tes no- * * * *||* stras,|
[M:3/2] z4 A4 ^G4 | A2 A2 A2 A2 ^G4 | A2 A2 A2 A2 A4 | ^G12 | z12 | z2 e2 e2 e2 d4 | %19
w: ut dig-|ni ca- na- mus ti-|bi, ca- na- mus ti-|bi,||glo- ri- ae me-|
 e2 c2 c2 c2 B4 | c2 c4 A2 A4 | ^G4 A2 A2 A2 A2 | ^G6 A2 G4 |[M:4/2] A8 z8 | z8 A8 | A4 A4 c8 | %26
w: los, glo- ri- ae me-|los, glo- ri- ae|me- los, ca- na- mus|ti- * *|bi.|Qui-|bus in- dig-|
 B4 c4 B4 e4- | e4 d4 e8- | e8 z4 A4- | A4 ^G2 ^F2 G8 | A4 c8 B4 | A8 G8- | G8 A4 E4- | %33
w: ni om- ni lau-|* * de,|* lau-||de, om- ni|lau- de,|* lau- *|
 E4 F2 G2 A2 B2 c4- | c4 B4 c8- |[M:2/2] c8 |[M:3/2] z4 G4 A4 | G2 G2 A2 A2 B4 | G4 z4 z2 c2 | %39
w: |* * de.||Dig- nis-|si- mam col- lau- da-|mus, lau-|
 B4 c4 G4 | A4 G2 G2 A2 A2 | B4 G4 z4 | z2 e2 d4 e4 |[M:4/2] z4 A4 A4 ^G4 | A4 c4 A4 B4 | %45
w: da- mus, dig-|nis- si- mam col- lau-|da- mus,|lau- da- mus,|dig- nis- si-|mam col- lau- da-|
 G4 c8 B4 | A8 ^G4 G4 | A4 B4 c4 B2 B2 | A4 ^G2 G2 A4 B2 B2 | c8 B8- | B16 |] %51
w: mus, col- lau-|da- mus, dig-|nis- si- mam col- lau-|da- mus, lau- da- mus, lau-|da- mus.||
V:2
 E8 A,4 A,4 | ^G,8 A,2 B,2 C2 D2 | E8 E4 E4 | E4 E4 E8- | E4 E4 F4 E4 | D8 C2 D2 E4- | %6
w: Au- fer a|no- * * * *|* bis i-|ni- qui- ta-|* tes no- *||
 E4 D2 C2 D4 C2 D2 | E16- | E8 z4 E4 | E6 D2 ^C2 D2 E2 C2 | D8 z4 G,4- | G,2 A,2 B,4 A,8 | %12
w: |stras,|* i-|ni- qui- ta- * * *|tes no-||
 B,4 G,4 A,8 |[M:3/2] z4 E4 E4 | E2 E2 E2 E2 E4 | E2 E2 E2 E2 E4 | E12 | E4 E2 E2 D4 | E8 z4 | %19
w: * * stras,|ut dig-|ni ca- na- mus ti-|bi, ca- na- mus ti-|bi,|glo- ri- ae me-|los,|
 z2 G2 G2 G2 G4 | E2 E4 F2 E4 | E4 E2 E2 E2 E2 | E6 E2 E4 |[M:4/2] E8 E8 | E4 E4 F8 | E8 F4 F4 | %26
w: glo- ri- ae me-|los, glo- ri- ae|me- los, ca- na- mus|ti- bi, ti-|bi. Qui-|bus in- dig-|ni om- ni|
 E8 E8 | z4 D8 C4 | B,4 E8 D4 | C4 B,2 A,2 B,2 C2 D2 B,2 | C4 E8 E4 | F4 D4 E8 | z16 | z4 A8 G4 | %34
w: lau- de,|om- *|ni, om- ni|lau- * * * * * *|de, om- ni|lau- * de,||om- ni|
 F12 E2 D2 |[M:2/2] E8 |[M:3/2] z4 E4 F4 | E2 E2 F2 F2 G4 | E2 E2 D4 E4 | z4 z4 E4 | %40
w: lau- * *|de.|Dig- nis-|si- mam col- lau- da-|mus, lau- da- mus,|dig-|
 F4 E2 E2 F2 F2 | G4 E2 E2 D4 | E2 G2 G4 G4 |[M:4/2] z4 E4 F4 E4 | E4 E4 F4 D4 | E4 G8 G4 | %46
w: nis- si- mam col- lau-|da- mus, lau- da-|mus, lau- da- mus,|dig- nis- si-|mam col- lau- da-|mus, col- lau-|
 E8 E4 E4 | E4 G4 G4 G2 G2 | E16 | E16- | E16 |] %51
w: da- mus, dig-|nis- si- mam col- lau-|da-|mus.||
V:3
 z16 | z8 z4 A4 | B4 B4 c6 BA | ^G2 E2 A8 G4 | A12 A4 | D4 D4 E4 A4- | A2 G2 F2 G2 A4 A4- | %7
w: |Au-|fer a no- * *||bis i-|ni- qui- ta- *|* * * * * tes|
 A4 A8 ^G2 ^F2 | ^G2 A2 B8 A4 | B2 c2 d2 B2 e4 e4 | f4 d4 d4 c4 | B2 c2 d2 e2 c4 d4- | %12
w: * no- * *|* * * stras,|i- * * * ni- qui-|ta- tes no- *||
 d2 ^c2 c4 d8 |[M:3/2] z4 c4 B4 | c2 c2 c2 c2 B4 | c2 c2 c2 c2 c4 | B12 | z12 | z2 c2 c2 c2 G4 | %19
w: * * * stras,|ut dig-|ni ca- na- mus ti-|bi, ca- na- mus ti-|bi,||glo- ri- ae me-|
 c2 e2 e2 e2 d4 | c2 c4 d2 c4 | B4 c2 c2 c2 c2 | B6 c2 B4 |[M:4/2] c8 z8 | A8 A4 A4 | c8 A4 F4 | %26
w: los, glo- ri- ae me-|los, glo- ri- ae|me- los, ca- na- mus|ti- * *|bi.|Qui- bus in-|dig- ni om-|
 ^G4 A8 G4 | A8 B4 c4- | c4 B4 A8 | e16 | A4 A8 G4 | F8 E4 e4- | e4 d4 c8 | B4 A4 c4 G4 | d8 G8- | %35
w: ni lau- *|de, om- *|* * ni|lau-|de, om- ni|lau- de, om-|* ni lau-|de, om- * ni|lau- de.|
[M:2/2] G8 |[M:3/2] z4 c4 c4 | c2 c2 A2 c2 B4 | c4 z4 z2 c2 | G4 c4 c4 | c4 c2 c2 A2 c2 | %41
w: |Dig- nis-|si- mam col- lau- da-|mus, lau-|da- mus, dig-|nis- si- mam col- lau-|
 B4 c4 z4 | z2 c2 B4 c4 |[M:4/2] z4 c4 d4 B4 | c4 c4 c4 B4 | c4 e8 d4 | c8 B4 B4 | c4 d4 e4 d2 d2 | %48
w: da- mus,|lau- da- mus,|dig- nis- si-|mam col- lau- da-|mus, col- lau-|da- mus, dig-|nis- si- mam col- lau-|
 c4 B2 B2 c4 d4 | c2 B2 A8 ^G2 ^F2 | ^G16 |] %51
w: da- mus, lau- da- *||mus.|
V:4
 z16 | E,8 A,,4 A,,4 | ^G,,8 A,,2 B,,2 C,2 D,2 | E,16 | ^C,4 C,4 D,4 =C,4 | B,,8 A,,8 | F,16 | %7
w: |Au- fer a|no- * * * *||bis i- ni- qui-|ta- tes|no-|
 C,6 D,2 E,8- | E,8 A,,4 A,,4 | ^G,,4 G,,4 A,,2 B,,2 ^C,2 A,,2 | D,4 D,2 E,2 F,2 D,2 E,2 F,2 | %11
w: |* stras, i-|ni- qui- ta- * * *|tes no- * * * * *|
 G,8 A,4 F,4 | E,8 D,8 |[M:3/2] z4 A,,4 E,4 | A,,2 A,,2 A,2 A,2 E,4 | A,,2 A,,2 A,,2 A,,2 A,,4 | %16
w: stras, no- *|* stras.|Ut dig-|ni ca- na- mus ti-|bi, ca- na- mus ti-|
 E,12 | C,4 C,2 C,2 G,4 | C,8 z4 | z2 C,2 C,2 C,2 G,4 | C,2 A,,4 D,2 A,,4 | %21
w: bi,|glo- ri- ae me-|los,|glo- ri- ae me-|los, glo- ri- ae|
 E,4 A,,2 A,,2 A,,2 A,,2 | E,6 A,2 E,4 |[M:4/2] A,,8 z8 | z16 | z16 | E,8 E,4 E,4 | F,8 E,4 A,4- | %28
w: me- los, ca- na- mus|ti- bi, ti-|bi.|||Qui- bus in-|dig- ni om-|
 A,4 G,4 F,8 | E,16 | z16 | z8 z4 C4- | C4 B,4 A,8 | G,4 F,8 E,4 | D,8 C,8- |[M:2/2] C,8 | %36
w: * ni lau-|de,||om-|* ni lau-|de, om- ni|lau- de.||
[M:3/2] z4 C,4 F,4 | C,2 C,2 F,2 A,2 G,4 | C,2 C,2 G,4 C,4 | z4 z4 C,4 | F,4 C,2 C,2 F,2 A,2 | %41
w: Dig- nis-|si- mam col- lau- da-|mus, lau- da- mus,|dig-|nis- si- mam col- lau-|
 G,4 C,2 C,2 G,,4 | C,2 C,2 G,4 C,4 |[M:4/2] z4 A,,4 D,4 E,4 | A,,4 A,4 F,4 G,4 | C,4 C,8 G,,4 | %46
w: da- mus, lau- da-|mus, lau- da- mus,|dig- nis- si-|mam col- lau- da-|mus, col- lau-|
 A,,8 E,4 E,4 | A,4 G,4 C,4 G,,2 G,,2 | A,,4 E,2 E,2 A,,4 ^G,,2 G,,2 | A,,8 E,8- | E,16 |] %51
w: da- mus, dig-|nis- si- mam col- lau-|da- mus, lau- da- mus, lau-|da- mus.||

